lib/svgs/zendesk.svg

<?xml version="1.0" encoding="UTF-8" standalone="no"?>
<svg width="20px" height="20px" viewBox="0 0 20 20" version="1.1" xmlns="http://www.w3.org/2000/svg" xmlns:xlink="http://www.w3.org/1999/xlink">
    <defs></defs>
    <g id="Icons" stroke="none" stroke-width="1" fill="none" fill-rule="evenodd">
        <g id="Web" transform="translate(-385.000000, -1036.000000)" fill="#000000">
            <g id="brand/zendesk" transform="translate(385.000000, 1036.000000)">
                <path d="M9.9688,13.3254023 C9.59376,13.1373069 8.65632,12.6038611 7.81248,11.8195143 C7.4688,12.4470881 7.31248,13.1686293 7.31248,13.8588481 C7.31248,14.4862613 7.43744,15.082352 7.68752,15.6784427 C8.18752,16.7764961 9.06256,17.5921654 10.06256,18 C11.0312,17.5608429 11.87504,16.7764961 12.34368,15.7097652 C11.21872,15.239125 10.37504,14.3608108 9.9688,13.3254023 L9.9688,13.3254023 L9.9688,13.3254023 M13.93744,12.0077704 C13.43744,12.0077704 12.93744,11.9136423 12.5312,11.7568694 C11.78128,12.4470881 10.9688,12.9175677 10.56256,13.1373069 C11.15632,14.0784266 12.09376,14.7999679 13.24992,15.082352 C13.62496,15.17648 13.9688,15.2078025 14.31248,15.2078025 C15.12496,15.2078025 15.87504,14.988224 16.5312,14.6431949 C16.62496,14.2666827 16.65632,13.8901706 16.65632,13.5136584 C16.65632,12.7921172 16.5,12.070576 16.15632,11.4116797 C15.43744,11.8195143 14.68752,12.0077704 13.93744,12.0077704 L13.93744,12.0077704 L13.93744,12.0077704 M15.40624,5.92157335 C15.34368,5.92157335 15.31248,5.89009025 15.24992,5.89009025 L15.24992,5.92157335 C15.09376,6.79988756 14.71872,7.61571746 14.18752,8.21164754 C14.21872,8.36858115 14.21872,8.52551476 14.21872,8.71377084 C14.21872,9.74901866 13.68752,10.658816 13.0312,11.3803572 C13.21872,11.4116797 13.40624,11.4116797 13.59376,11.4116797 C14.56256,11.4116797 15.5312,11.1294562 16.34368,10.4705599 C17.28128,9.74901866 17.84368,8.68228775 18,7.61571746 C17.37504,6.79988756 16.43744,6.20379685 15.40624,5.92157335 L15.40624,5.92157335 L15.40624,5.92157335 M11.4688,6.42353603 C11.62496,6.39205293 11.81248,6.36073046 12,6.36073046 L12.06256,6.36073046 C12.75008,6.36073046 13.43744,6.70592015 13.84368,7.3646558 C14.24992,6.70592015 14.4688,5.92157335 14.4688,5.07442099 C14.4688,3.88223956 14,2.78418617 13.24992,2 L13.18752,2 C12.12496,2 11.21872,2.37635153 10.37504,3.12937586 C11.18752,4.0078507 11.4688,5.07442099 11.4688,6.17247437 L11.4688,6.42353603 L11.4688,6.42353603 L11.4688,6.42353603 M8.5312,6.51766407 C9.21872,6.54898654 9.87504,6.8940156 10.24992,7.61571746 C10.43744,7.23920529 10.71872,6.95682117 11.0312,6.79988756 L11.0312,6.67443705 C11.0312,5.41961068 10.5312,4.19594615 9.5312,3.31763194 C8.68752,2.56460762 7.62496,2.21957855 6.59376,2.21957855 C6.5312,2.21957855 6.4688,2.21957855 6.43744,2.18809545 C5.71872,3.00392535 5.28128,4.03917317 5.28128,5.1998715 L5.28128,5.2313546 L5.40624,5.2313546 C6.62496,5.2313546 7.75008,5.73331727 8.5312,6.51766407 L8.5312,6.51766407 L8.5312,6.51766407 M6.21872,8.83922136 L6.21872,8.68228775 C6.21872,7.45878384 6.9688,6.70592015 7.81248,6.48618097 C7.15632,6.10982943 6.40624,5.89009025 5.59376,5.89009025 C5.34368,5.89009025 5.06256,5.92157335 4.81248,5.95289582 C3.62496,6.17247437 2.65632,6.83137066 2,7.7098455 C2.18752,8.77641579 2.75008,9.78034113 3.65632,10.5018824 C4.31248,9.59208505 5.24992,9.02747744 6.21872,8.83922136 L6.21872,8.83922136 L6.21872,8.83922136 M7.4688,11.3175516 C6.93744,10.7842665 6.5,10.1255308 6.34368,9.3725065 C5.34368,9.74901866 4.4688,10.4705599 3.93744,11.4744852 C3.59376,12.1333815 3.43744,12.8549227 3.43744,13.5451415 C3.43744,13.9529761 3.5,14.3921332 3.59376,14.7373229 C4.21872,15.1136745 4.9688,15.3019305 5.71872,15.3019305 C6.06256,15.3019305 6.43744,15.2706081 6.78128,15.17648 C6.68752,14.7686454 6.62496,14.3608108 6.62496,13.9529761 C6.62496,13.0116957 6.93744,12.1018984 7.4688,11.3175516 L7.4688,11.3175516 L7.4688,11.3175516" id="Shape"></path>
            </g>
        </g>
    </g>
</svg>

<svg xmlns="http://www.w3.org/2000/svg" viewBox="0 0 20 20">
    <path fill="#000" fill-rule="evenodd" d="M9.969 13.325a10.058 10.058 0 0 1-2.157-1.505 4.28 4.28 0 0 0-.5 2.039c0 .627.125 1.223.376 1.82A4.516 4.516 0 0 0 10.063 18a4.517 4.517 0 0 0 2.28-2.29 4.327 4.327 0 0 1-2.374-2.385m3.968-1.317c-.5 0-1-.094-1.406-.251a9.99 9.99 0 0 1-1.968 1.38 4.41 4.41 0 0 0 3.75 2.07c.812 0 1.562-.219 2.218-.564.094-.376.125-.753.125-1.13 0-.72-.156-1.442-.5-2.101a4.45 4.45 0 0 1-2.219.596m1.47-6.086c-.063 0-.095-.032-.157-.032v.032a4.71 4.71 0 0 1-1.062 2.29c.03.157.03.314.03.502 0 1.035-.53 1.945-1.187 2.666.188.032.375.032.563.032A4.435 4.435 0 0 0 18 7.616a4.908 4.908 0 0 0-2.594-1.694m-3.937.502c.156-.032.343-.063.531-.063h.063a2.09 2.09 0 0 1 1.78 1.004 4.335 4.335 0 0 0 .626-2.29c0-1.193-.469-2.29-1.22-3.075h-.061a4.069 4.069 0 0 0-2.813 1.13c.813.878 1.094 1.944 1.094 3.042v.252m-2.938.094a1.987 1.987 0 0 1 1.719 1.098c.187-.377.469-.66.781-.816v-.126A4.424 4.424 0 0 0 6.594 2.22c-.063 0-.125 0-.157-.032A4.514 4.514 0 0 0 5.281 5.2v.031h.125c1.219 0 2.344.502 3.125 1.287M6.22 8.839v-.157c0-1.223.75-1.976 1.593-2.196a4.43 4.43 0 0 0-3-.533A4.518 4.518 0 0 0 2 7.71a4.571 4.571 0 0 0 1.656 2.792A4.152 4.152 0 0 1 6.22 8.839m1.25 2.479a3.954 3.954 0 0 1-1.125-1.945 4.504 4.504 0 0 0-2.407 2.101 4.493 4.493 0 0 0-.343 3.263 4.145 4.145 0 0 0 2.125.565 4.1 4.1 0 0 0 1.062-.126 5.47 5.47 0 0 1-.156-1.223c0-.941.312-1.851.844-2.635"/>
</svg>
